packages/tokens/icons/userPermission/size24Px.svg

<svg viewBox="0 0 24 24" fill="none" xmlns="http://www.w3.org/2000/svg" width="1em" height="1em"><path d="M3.5 19.5V19.1667C3.5 16.8655 5.24111 15.5 7.38889 15.5L13.5 15.5" stroke="currentColor" stroke-linecap="round" stroke-linejoin="round"/><path d="M12 11.5C14.2091 11.5 16 9.70914 16 7.5C16 5.29086 14.2091 3.5 12 3.5C9.79086 3.5 8 5.29086 8 7.5C8 9.70914 9.79086 11.5 12 11.5Z" stroke="currentColor" stroke-linecap="round" stroke-linejoin="round"/><circle cx="18.5" cy="18.5" r="2" stroke="currentColor" stroke-linecap="round" stroke-linejoin="round"/><path d="M18.5 16.5V12.5M18.5 10.5H20.5M18.5 10.5V12.5M18.5 10.5V9.5M18.5 12.5H20.5" stroke="currentColor" stroke-linecap="round" stroke-linejoin="round"/></svg>

<svg xmlns="http://www.w3.org/2000/svg" fill="none" viewBox="0 0 24 24" width="1em" height="1em"><path stroke="currentColor" stroke-linecap="round" stroke-linejoin="round" d="M3.5 19.5v-.333c0-2.302 1.741-3.667 3.889-3.667H13.5m-1.5-4a4 4 0 1 0 0-8 4 4 0 0 0 0 8Z"/><circle cx="18.5" cy="18.5" r="2" stroke="currentColor" stroke-linecap="round" stroke-linejoin="round"/><path stroke="currentColor" stroke-linecap="round" stroke-linejoin="round" d="M18.5 16.5v-4m0-2h2m-2 0v2m0-2v-1m0 3h2"/></svg>
